48x48/apps/dvanalyzer.svg

<svg xmlns="http://www.w3.org/2000/svg" width="48" height="48" version="1"><path style="opacity:.2" d="M44 25a20 20 0 0 1-20 20A20 20 0 0 1 4 25 20 20 0 0 1 24 5a20 20 0 0 1 20 20z"/><path style="fill:#4f4f4f" d="M44 24a20 20 0 0 1-20 20A20 20 0 0 1 4 24 20 20 0 0 1 24 4a20 20 0 0 1 20 20z"/><path style="fill:#f4f4f7;opacity:.1" d="M24 4A20 20 0 0 0 4 24a20 20 0 0 0 .021.582A20 20 0 0 1 24 5a20 20 0 0 1 19.979 19.418A20 20 0 0 0 44 24 20 20 0 0 0 24 4z"/><path style="opacity:.2" d="M24 13a5 5 0 0 0-5 5 5 5 0 0 0 5 5 5 5 0 0 0 5-5 5 5 0 0 0-5-5zm0 13a6 6 0 0 0-6 6v12.074a20 20 0 0 0 3 .674v-7.559A6 6 0 0 0 24 38a6 6 0 0 0 6-6 6 6 0 0 0-6-6z"/><path style="fill:#f99c32" d="M18 31v12.074a20 20 0 0 0 3 .674V31h-3z"/><circle style="fill:#e4701d" cx="24" cy="17" r="5"/><circle style="fill:#f99c32" cx="24" cy="31" r="6"/><path style="opacity:.2;fill:#f4f4f7" d="M24 12a5 5 0 0 0-5 5 5 5 0 0 0 .027.516A5 5 0 0 1 24 13a5 5 0 0 1 4.973 4.484A5 5 0 0 0 29 17a5 5 0 0 0-5-5zm0 13a6 6 0 0 0-6 6v1a6 6 0 0 1 6-6 6 6 0 0 1 5.975 5.498A6 6 0 0 0 30 31a6 6 0 0 0-6-6z"/></svg>

<svg xmlns="http://www.w3.org/2000/svg" width="48" height="48" version="1">
 <path style="opacity:0.2" d="M 44,25 A 20,20 0 0 1 24,45 20,20 0 0 1 4,25 20,20 0 0 1 24,5 20,20 0 0 1 44,25 Z"/>
 <path style="fill:#4f4f4f" d="m44 24a20 20 0 0 1 -20 20 20 20 0 0 1 -20 -20 20 20 0 0 1 20 -20 20 20 0 0 1 20 20z"/>
 <path style="fill:#f4f4f7;opacity:0.1" d="M 24 4 A 20 20 0 0 0 4 24 A 20 20 0 0 0 4.0214844 24.582031 A 20 20 0 0 1 24 5 A 20 20 0 0 1 43.978516 24.417969 A 20 20 0 0 0 44 24 A 20 20 0 0 0 24 4 z"/>
 <path style="opacity:0.2" d="m 24,12.999953 a 5,5 0 0 0 -5,5 5,5 0 0 0 5,5 5,5 0 0 0 5,-5 5,5 0 0 0 -5,-5 z m 0,13 a 6,6 0 0 0 -6,6 V 44.074172 A 20,20 0 0 0 21,44.748 v -7.558594 a 6,6 0 0 0 3,0.810547 6,6 0 0 0 6,-6 6,6 0 0 0 -6,-6 z"/>
 <path style="fill:#f99c32" d="M 18 31 L 18 43.074219 A 20 20 0 0 0 21 43.748047 L 21 31 L 18 31 z"/>
 <circle style="fill:#e4701d" cx="24" cy="17" r="5"/>
 <circle style="fill:#f99c32" cx="24" cy="31" r="6"/>
 <path style="opacity:0.2;fill:#f4f4f7" d="M 24 12 A 5 5 0 0 0 19 17 A 5 5 0 0 0 19.027344 17.515625 A 5 5 0 0 1 24 13 A 5 5 0 0 1 28.972656 17.484375 A 5 5 0 0 0 29 17 A 5 5 0 0 0 24 12 z M 24 25 A 6 6 0 0 0 18 31 L 18 32 A 6 6 0 0 1 24 26 A 6 6 0 0 1 29.974609 31.498047 A 6 6 0 0 0 30 31 A 6 6 0 0 0 24 25 z"/>
</svg>
